X:2
T:crugybar
M:4/4
L:1/4
Q:100
C:tradd.
K:D
D|F2FF|FA2F|DE2D|AB2A/B/|AF2E|D3:||
A|A2GF|B2Bd|BA2G|FA2B|B2AF|E3|
D|F2FF|FA2F|DE2D|AB2A/B/|AF2E|D3|
